src/24x24/places/folder-gruvbox-mix-aqua-script.svg

<?xml version="1.0" encoding="UTF-8"?>
<svg width="24" height="24" version="1" xmlns="http://www.w3.org/2000/svg">
 <rect x="2" y="9.5" width="20" height="12" rx="1" ry="1" opacity=".2"/>
 <path d="m2 17c0 0.554 0.446 1 1 1h18c0.554 0 1-0.446 1-1v-11c0-0.554-0.446-1-1-1h-9c-1.5 0-2-2-3.5-2h-5.5c-0.554 0-1 0.446-1 1" fill="#477a5b"/>
 <rect x="2" y="8.5" width="20" height="12" rx="1" ry="1" opacity=".2"/>
 <rect x="4" y="7" width="16" height="8" rx="1" ry="1" fill="#DCE0BB"/>
 <rect x="2" y="9" width="20" height="12" rx="1" ry="1" fill="#8bba7f"/>
 <path d="m3 3c-0.554 0-1 0.446-1 1v0.5c0-0.554 0.446-1 1-1h5.5c1.5 0 2 2 3.5 2h9c0.554 0 1 0.446 1 1v-0.5c0-0.554-0.446-1-1-1h-9c-1.5 0-2-2-3.5-2z" fill="#DCE0BB" opacity=".1"/>
 <g transform="translate(-2,-1.361)" fill="#39433D">
  <path d="m15 18.361h4v1h-4z"/>
  <rect x="11" y="12.36" width="1" height="7"/>
  <path d="m10.5 13.361c-0.83 0-1.5 0.67-1.5 1.5s0.67 1.5 1.5 1.5h2c0.28 0 0.5 0.22 0.5 0.5s-0.22 0.51-0.5 0.5h-3.41c0.21 0.58 0.76 1 1.41 1h2c0.83 0 1.5-0.67 1.5-1.5s-0.67-1.5-1.5-1.5h-2c-0.28 0-0.5-0.22-0.5-0.5s0.22-0.5 0.5-0.5h3.41c-0.21-0.58-0.76-1-1.41-1h-0.5z"/>
 </g>
</svg>

<svg xmlns="http://www.w3.org/2000/svg" width="24" height="24" version="1">
 <rect style="opacity:0.2" width="20" height="12" x="2" y="9.5" rx="1" ry="1"/>
 <path style="fill:#477a5b" d="M 2,17 C 2,17.554 2.446,18 3,18 H 21 C 21.554,18 22,17.554 22,17 V 6 C 22,5.446 21.554,5 21,5 H 12 C 10.5,5 10,3 8.5,3 H 3 C 2.446,3 2,3.446 2,4"/>
 <rect style="opacity:0.2" width="20" height="12" x="2" y="8.5" rx="1" ry="1"/>
 <rect style="fill:#DCE0BB" width="16" height="8" x="4" y="7" rx="1" ry="1"/>
 <rect style="fill:#8bba7f" width="20" height="12" x="2" y="9" rx="1" ry="1"/>
 <path style="opacity:0.1;fill:#DCE0BB" d="M 3,3 C 2.446,3 2,3.446 2,4 V 4.5 C 2,3.946 2.446,3.5 3,3.5 H 8.5 C 10,3.5 10.5,5.5 12,5.5 H 21 C 21.554,5.5 22,5.946 22,6.5 V 6 C 22,5.446 21.554,5 21,5 H 12 C 10.5,5 10,3 8.5,3 Z"/>
 <g style="fill:#39433D" transform="translate(-2,-1.361)">
  <path d="M 15,18.361 H 19 V 19.361 H 15 Z"/>
  <rect width="1" height="7" x="11" y="12.36"/>
  <path d="M 10.5,13.361 C 9.67,13.361 9,14.031 9,14.861 9,15.691 9.67,16.361 10.5,16.361 H 12 12.5 C 12.78,16.361 13,16.581 13,16.861 13,17.141 12.78,17.371 12.5,17.361 H 12 10.5 9.09 C 9.3,17.941 9.85,18.361 10.5,18.361 H 12 12.5 C 13.33,18.361 14,17.691 14,16.861 14,16.031 13.33,15.361 12.5,15.361 H 12 10.5 C 10.22,15.361 10,15.141 10,14.861 10,14.581 10.22,14.361 10.5,14.361 H 12 12.5 13.91 C 13.7,13.781 13.15,13.361 12.5,13.361 H 12 Z"/>
 </g>
</svg>
